X: 1217
T: Karcığar Aranağme (Curcuna)
C: ?
O: Turkey
F: http://compmusic.upf.edu/node/140
N: karcigar--aranagme--curcuna--1--
N: makam= karcigar
N: form= aranagme
N: usul= curcuna = 10/8
M: 10/8
L: 1/16
K: C _2/4B _3/4e ^3/4f 
Q: 1/4=168
%%MIDI tuningsystem comma53
A4 ^F2G2 A2_1/4B2 c2d2 e2^f2  | g2a2 _b2a2 g2^f2 a2g4z2  | \
w:  ARANAĞME  |   | 
g4 c'2_b2 a2g2 =f2=e2 ^d2e2  | 
w:   | 
g2^f2 e2d2 c2d2 _1/4B2c4z2  | c2_1/4B2 c2d2 e2^f2 g2a4z2  | \
w:   |   | 
a2c'2 _b2a2 g2^f2 e2d4z2  | 
w:   | 
g2^f2 e2d4f2 e2d2 c4  | e2d2 c2B2 A2B2 G2A4z2  | \
w:   |   | 
A4 ^F2G2 A2_1/4B2 c2d2 e2^f2  | 
w:  ARANAĞME  | 
g2a2 _b2a2 g2^f2 a2g4z2  | g4 c'2_b2 a2g2 =f2=e2 ^d2e2  | \
w:   |   | 
g2^f2 e2d2 c2d2 _1/4B2c4z2  | 
w:   | 
c2_1/4B2 c2d2 e2^f2 g2a4z2  | a2c'2 _b2a2 g2^f2 e2d4z2  | \
w:   |   | 
g2^f2 e2d4f2 e2d2 c4  | 
w:   | 
e2d2 c2B2 A2B2 G2A4z2  | |


